static/img/kroki/f839a04ac268180f89896bf378c327ae.svg

<?xml version="1.0" encoding="us-ascii" standalone="no"?><svg xmlns="http://www.w3.org/2000/svg" xmlns:xlink="http://www.w3.org/1999/xlink" contentStyleType="text/css" height="152px" preserveAspectRatio="none" style="width:163px;height:152px;" version="1.1" viewBox="0 0 163 152" width="163px" zoomAndPan="magnify"><defs/><g><!--class gcp_firewall--><g id="elem_gcp_firewall"><rect codeLine="22" fill="#3D176E" height="39.7891" id="gcp_firewall" rx="2.5" ry="2.5" style="stroke:#000D19;stroke-width:0.5;" width="142" x="10.5" y="7"/><ellipse cx="25.5" cy="26.8945" fill="#ADD1B2" rx="11" ry="11" style="stroke:#181818;stroke-width:1.0;"/><path d="M28.4688,32.5352 Q27.8906,32.832 27.25,32.9727 Q26.6094,33.1289 25.9063,33.1289 Q23.4063,33.1289 22.0781,31.4883 Q20.7656,29.832 20.7656,26.707 Q20.7656,23.582 22.0781,21.9258 Q23.4063,20.2695 25.9063,20.2695 Q26.6094,20.2695 27.25,20.4258 Q27.9063,20.582 28.4688,20.8789 L28.4688,23.5977 Q27.8438,23.0195 27.25,22.7539 Q26.6563,22.4727 26.0313,22.4727 Q24.6875,22.4727 24,23.5508 Q23.3125,24.6133 23.3125,26.707 Q23.3125,28.8008 24,29.8789 Q24.6875,30.9414 26.0313,30.9414 Q26.6563,30.9414 27.25,30.6758 Q27.8438,30.3945 28.4688,29.8164 L28.4688,32.5352 Z " fill="#000000"/><text fill="#D9B8FF" font-family="Helvetica" font-size="17" lengthAdjust="spacing" textLength="100" x="44.5" y="32.7798">gcp_firewall</text></g><!--class gcp_network--><g id="elem_gcp_network"><rect codeLine="24" fill="#3D176E" height="39.7891" id="gcp_network" rx="2.5" ry="2.5" style="stroke:#000D19;stroke-width:0.5;" width="149" x="7" y="106.79"/><ellipse cx="22" cy="126.6845" fill="#ADD1B2" rx="11" ry="11" style="stroke:#181818;stroke-width:1.0;"/><path d="M24.9688,132.3252 Q24.3906,132.622 23.75,132.7627 Q23.1094,132.9189 22.4063,132.9189 Q19.9063,132.9189 18.5781,131.2783 Q17.2656,129.622 17.2656,126.497 Q17.2656,123.372 18.5781,121.7158 Q19.9063,120.0595 22.4063,120.0595 Q23.1094,120.0595 23.75,120.2158 Q24.4063,120.372 24.9688,120.6689 L24.9688,123.3877 Q24.3438,122.8095 23.75,122.5439 Q23.1563,122.2627 22.5313,122.2627 Q21.1875,122.2627 20.5,123.3408 Q19.8125,124.4033 19.8125,126.497 Q19.8125,128.5908 20.5,129.6689 Q21.1875,130.7314 22.5313,130.7314 Q23.1563,130.7314 23.75,130.4658 Q24.3438,130.1845 24.9688,129.6064 L24.9688,132.3252 Z " fill="#000000"/><text fill="#D9B8FF" font-family="Helvetica" font-size="17" lengthAdjust="spacing" textLength="107" x="41" y="132.5698">gcp_network</text></g><!--link gcp_firewall to gcp_network--><g id="link_gcp_firewall_gcp_network"><path codeLine="26" d="M81.5,47.22 C81.5,62.49 81.5,83.92 81.5,100.53 " fill="none" id="gcp_firewall-to-gcp_network" style="stroke:#1A83AF;stroke-width:2.0;"/><polygon fill="#1A83AF" points="81.5,105.41,85.5,96.41,81.5,100.41,77.5,96.41,81.5,105.41" style="stroke:#1A83AF;stroke-width:2.0;"/></g><!--SRC=[XT1DIyD040RWUt_5Giw5nA1fBa8C5BqKiTv4P9ATJPPiTiFirb35_wvfLRP9Fwup3pFlJ2qvCcmxjsKjjWMIdTb6wWu8MfOHcJutoX0BX00H9-FcqcXt4QoWHNQFwXsTB64idcjPDXgjPLTUwmxAfYApqNm_tX5e-zD2xJoLAx0sSuvaiN7eXU5fiH1YBCT3WvX7oGrEc26Ez4l2CEHHEYONLvsz-r-ivGUoo7_QoZYSn9oisAcpAGVXXPmS-jS_cV4HE9UwOjTUxMcVYJJIGNrT0pVze0Keww-n3WcDstQOJwx2TC55SXG_dCBby3bMbTsRa8GzACK-PrzUMQFh3JMxwW6RlmHHjeYpvUlyrfVV]--></g></svg>

<svg xmlns="http://www.w3.org/2000/svg" width="163" height="152" preserveAspectRatio="none" style="width:163px;height:152px"><rect width="142" height="39.789" x="10.5" y="7" fill="#3D176E" rx="2.5" ry="2.5" style="stroke:#000d19;stroke-width:.5"/><circle cx="25.5" cy="26.895" r="11" fill="#ADD1B2" style="stroke:#181818;stroke-width:1"/><path d="M28.469 32.535q-.578.297-1.219.438-.64.156-1.344.156-2.5 0-3.828-1.64-1.312-1.657-1.312-4.782t1.312-4.781q1.328-1.656 3.828-1.656.703 0 1.344.156.656.156 1.219.453v2.719q-.625-.578-1.219-.844-.594-.281-1.219-.281-1.343 0-2.031 1.078-.688 1.062-.688 3.156 0 2.094.688 3.172.688 1.062 2.031 1.062.625 0 1.219-.265.594-.281 1.219-.86v2.72Z"/><text x="44.5" y="32.78" fill="#D9B8FF" font-family="Helvetica" font-size="17" textLength="100">gcp_firewall</text><rect width="149" height="39.789" x="7" y="106.79" fill="#3D176E" rx="2.5" ry="2.5" style="stroke:#000d19;stroke-width:.5"/><circle cx="22" cy="126.684" r="11" fill="#ADD1B2" style="stroke:#181818;stroke-width:1"/><path d="M24.969 132.325q-.578.297-1.219.438-.64.156-1.344.156-2.5 0-3.828-1.64-1.312-1.657-1.312-4.782t1.312-4.781q1.328-1.656 3.828-1.656.703 0 1.344.156.656.156 1.219.453v2.719q-.625-.579-1.219-.844-.594-.281-1.219-.281-1.343 0-2.031 1.078-.688 1.062-.688 3.156 0 2.094.688 3.172.688 1.062 2.031 1.062.625 0 1.219-.265.594-.281 1.219-.86v2.72Z"/><text x="41" y="132.57" fill="#D9B8FF" font-family="Helvetica" font-size="17" textLength="107">gcp_network</text><path fill="none" d="M81.5 47.22v53.31" style="stroke:#1a83af;stroke-width:2"/><path fill="#1A83AF" d="m81.5 105.41 4-9-4 4-4-4 4 9z" style="stroke:#1a83af;stroke-width:2"/></svg>
